lib/healthicons/icons/solid/people/asthma.svg

<svg fill="none" height="48" viewBox="0 0 48 48" width="48" xmlns="http://www.w3.org/2000/svg"><g fill="#333"><path clip-rule="evenodd" d="m7 6c-.36423 0-.72517.015-1.08222.04446-.51864.04279-.91778.47621-.91778.99661v35.95893c0 .5523.44772 1 1 1h3c.55228 0 1-.4477 1-1v-4.4835l4.0968 1.7558c.5237.2245 1.1605.461 1.8254.5486.6772.0892 1.4457.0312 2.1604-.4053 1.1477-.7009 1.9174-1.9679 1.9174-3.4156v-3c0-.5523-.4477-1-1-1h-3c0-1.1046.8954-2 2-2h1c.5523 0 1-.4477 1-1v-2h1.1315c1.5974 0 2.5502-1.7803 1.6641-3.1094l-2.7956-4.1934v-1.6972c0-7.1797-5.8203-13-13-13zm10 15.5c0 .8284-.6716 1.5-1.5 1.5s-1.5-.6716-1.5-1.5.6716-1.5 1.5-1.5 1.5.6716 1.5 1.5z" fill-rule="evenodd"/><path clip-rule="evenodd" d="m35.4966 15.7404c.1433-.5325.6907-.8485 1.2235-.7064l4.4682 1.1922c.2566.0684.4755.2362.6083.4662.1327.23.1686.5034.0996.7598l-.777 2.8874.2934.1329c.4482.203.6821.7019.5515 1.1763l-2.9394 10.6784c-.5972 2.1697-2.5703 3.673-4.8207 3.673h-6.204c-.5523 0-1-.4477-1-1v-7c0-.5522.4477-1 1-1h3.2468l2.3851-8.7794c.0768-.2829.2739-.5177.539-.6426.2634-.124.5677-.1271.8335-.0085zm4.2079 2.1598-.4628 1.7197-2.4215-1.1016.3484-1.2946z" fill-rule="evenodd"/><path d="m26 28v7h-2v-7z"/></g></svg>

<svg width="48" height="48" viewBox="0 0 48 48" fill="none" xmlns="http://www.w3.org/2000/svg">
<path fill-rule="evenodd" clip-rule="evenodd" d="M7 6C6.63577 6 6.27483 6.015 5.91778 6.04446C5.39914 6.08725 5 6.52067 5 7.04107V43C5 43.5523 5.44772 44 6 44H9C9.55228 44 10 43.5523 10 43V38.5165L14.0968 40.2723C14.6205 40.4968 15.2573 40.7333 15.9222 40.8209C16.5994 40.9101 17.3679 40.8521 18.0826 40.4156C19.2303 39.7147 20 38.4477 20 37V34C20 33.4477 19.5523 33 19 33H16C16 31.8954 16.8954 31 18 31H19C19.5523 31 20 30.5523 20 30V28H21.1315C22.7289 28 23.6817 26.2197 22.7956 24.8906L20 20.6972V19C20 11.8203 14.1797 6 7 6ZM17 21.5C17 22.3284 16.3284 23 15.5 23C14.6716 23 14 22.3284 14 21.5C14 20.6716 14.6716 20 15.5 20C16.3284 20 17 20.6716 17 21.5Z" fill="#333333"/>
<path fill-rule="evenodd" clip-rule="evenodd" d="M35.4966 15.7404C35.6399 15.2079 36.1873 14.8919 36.7201 15.034L41.1883 16.2262C41.4449 16.2946 41.6638 16.4624 41.7966 16.6924C41.9293 16.9224 41.9652 17.1958 41.8962 17.4522L41.1192 20.3396L41.4126 20.4725C41.8608 20.6755 42.0947 21.1744 41.9641 21.6488L39.0247 32.3272C38.4275 34.4969 36.4544 36.0002 34.204 36.0002H28C27.4477 36.0002 27 35.5525 27 35.0002V28.0002C27 27.448 27.4477 27.0002 28 27.0002H31.2468L33.6319 18.2208C33.7087 17.9379 33.9058 17.7031 34.1709 17.5782C34.4343 17.4542 34.7386 17.4511 35.0044 17.5697L35.4966 15.7404ZM39.7045 17.9002L39.2417 19.6199L36.8202 18.5183L37.1686 17.2237L39.7045 17.9002Z" fill="#333333"/>
<path d="M26 28V35H24V28H26Z" fill="#333333"/>
</svg>
